X: 33262
T: Pumpherston, The
R: hornpipe
M: 4/4
K: Eminor
[M:6/8]
B,^C^D|:E^DE B,EG|F2E ^D2A|GAB g2f|e2d c2B|
[1 ^A2B A2B|F2G F2G|FGA GFE|^D2B B,^C^D:|
[2 ^A2B F2=A|G2B E2G|F2E B2B,|E3 E2f||
gfe gee|f2b B2f|gfe gee|f2b B2f|
gfe fed|edc dcB|cBA BAG|F2E ^D2B,|
EFG EFG|^A2B A2B|EFG EFG|^A2B A2B|
EFG ^DEF|GAB ^DEF|GFE B2B,|E3 B,^C^D||

